packages/assets/static/images/icons/doc-pdf.svg

<svg width="24" height="24" viewBox="0 0 24 24" xmlns="http://www.w3.org/2000/svg">
<path d="M21 14.25C21 14.4489 20.921 14.6397 20.7803 14.7803C20.6397 14.921 20.4489 15 20.25 15H18V16.5H19.5C19.6989 16.5 19.8897 16.579 20.0303 16.7197C20.171 16.8603 20.25 17.0511 20.25 17.25C20.25 17.4489 20.171 17.6397 20.0303 17.7803C19.8897 17.921 19.6989 18 19.5 18H18V19.5C18 19.6989 17.921 19.8897 17.7803 20.0303C17.6397 20.171 17.4489 20.25 17.25 20.25C17.0511 20.25 16.8603 20.171 16.7197 20.0303C16.579 19.8897 16.5 19.6989 16.5 19.5V14.25C16.5 14.0511 16.579 13.8603 16.7197 13.7197C16.8603 13.579 17.0511 13.5 17.25 13.5H20.25C20.4489 13.5 20.6397 13.579 20.7803 13.7197C20.921 13.8603 21 14.0511 21 14.25ZM8.625 16.125C8.625 16.8212 8.34844 17.4889 7.85616 17.9812C7.36387 18.4734 6.69619 18.75 6 18.75H5.25V19.5C5.25 19.6989 5.17098 19.8897 5.03033 20.0303C4.88968 20.171 4.69891 20.25 4.5 20.25C4.30109 20.25 4.11032 20.171 3.96967 20.0303C3.82902 19.8897 3.75 19.6989 3.75 19.5V14.25C3.75 14.0511 3.82902 13.8603 3.96967 13.7197C4.11032 13.579 4.30109 13.5 4.5 13.5H6C6.69619 13.5 7.36387 13.7766 7.85616 14.2688C8.34844 14.7611 8.625 15.4288 8.625 16.125ZM7.125 16.125C7.125 15.8266 7.00647 15.5405 6.7955 15.3295C6.58452 15.1185 6.29837 15 6 15H5.25V17.25H6C6.29837 17.25 6.58452 17.1315 6.7955 16.9205C7.00647 16.7095 7.125 16.4234 7.125 16.125ZM15.375 16.875C15.375 17.7701 15.0194 18.6285 14.3865 19.2615C13.7535 19.8944 12.8951 20.25 12 20.25H10.5C10.3011 20.25 10.1103 20.171 9.96967 20.0303C9.82902 19.8897 9.75 19.6989 9.75 19.5V14.25C9.75 14.0511 9.82902 13.8603 9.96967 13.7197C10.1103 13.579 10.3011 13.5 10.5 13.5H12C12.8951 13.5 13.7535 13.8556 14.3865 14.4885C15.0194 15.1215 15.375 15.9799 15.375 16.875ZM13.875 16.875C13.875 16.3777 13.6775 15.9008 13.3258 15.5492C12.9742 15.1975 12.4973 15 12 15H11.25V18.75H12C12.4973 18.75 12.9742 18.5525 13.3258 18.2008C13.6775 17.8492 13.875 17.3723 13.875 16.875ZM3.75 10.5V3.75C3.75 3.35218 3.90804 2.97064 4.18934 2.68934C4.47064 2.40804 4.85218 2.25 5.25 2.25H14.25C14.3485 2.24992 14.4461 2.26926 14.5371 2.3069C14.6282 2.34454 14.7109 2.39975 14.7806 2.46938L20.0306 7.71938C20.1003 7.78908 20.1555 7.87182 20.1931 7.96286C20.2307 8.05391 20.2501 8.15148 20.25 8.25V10.5C20.25 10.6989 20.171 10.8897 20.0303 11.0303C19.8897 11.171 19.6989 11.25 19.5 11.25C19.3011 11.25 19.1103 11.171 18.9697 11.0303C18.829 10.8897 18.75 10.6989 18.75 10.5V9H14.25C14.0511 9 13.8603 8.92098 13.7197 8.78033C13.579 8.63968 13.5 8.44891 13.5 8.25V3.75H5.25V10.5C5.25 10.6989 5.17098 10.8897 5.03033 11.0303C4.88968 11.171 4.69891 11.25 4.5 11.25C4.30109 11.25 4.11032 11.171 3.96967 11.0303C3.82902 10.8897 3.75 10.6989 3.75 10.5ZM15 7.5H17.6897L15 4.81031V7.5Z"/>
</svg>

<svg viewBox="0 0 24 24" xmlns="http://www.w3.org/2000/svg" aria-hidden="true" fill="currentColor"><path d="M21 14.25a.75.75 0 0 1-.75.75H18v1.5h1.5a.75.75 0 1 1 0 1.5H18v1.5a.75.75 0 1 1-1.5 0v-5.25a.75.75 0 0 1 .75-.75h3a.75.75 0 0 1 .75.75M8.625 16.125A2.625 2.625 0 0 1 6 18.75h-.75v.75a.75.75 0 1 1-1.5 0v-5.25a.75.75 0 0 1 .75-.75H6a2.625 2.625 0 0 1 2.625 2.625m-1.5 0A1.125 1.125 0 0 0 6 15h-.75v2.25H6a1.125 1.125 0 0 0 1.125-1.125m8.25.75A3.375 3.375 0 0 1 12 20.25h-1.5a.75.75 0 0 1-.75-.75v-5.25a.75.75 0 0 1 .75-.75H12a3.375 3.375 0 0 1 3.375 3.375m-1.5 0A1.875 1.875 0 0 0 12 15h-.75v3.75H12a1.875 1.875 0 0 0 1.875-1.875M3.75 10.5V3.75a1.5 1.5 0 0 1 1.5-1.5h9a.75.75 0 0 1 .53.22l5.25 5.25a.75.75 0 0 1 .22.53v2.25a.75.75 0 1 1-1.5 0V9h-4.5a.75.75 0 0 1-.75-.75v-4.5H5.25v6.75a.75.75 0 1 1-1.5 0M15 7.5h2.69L15 4.81z"/></svg>
